Icons/Line/si_Assignment.svg

<svg width="24" height="24" viewBox="0 0 24 24" fill="none" xmlns="http://www.w3.org/2000/svg">
<path d="M16 3H18.6C19.9255 3 21 4.07452 21 5.4V20.6C21 21.9255 19.9255 23 18.6 23H5.4C4.07452 23 3 21.9255 3 20.6V5.4C3 4.07452 4.07452 3 5.4 3H8" stroke="black" stroke-width="1.5" stroke-miterlimit="10" stroke-linecap="round"/>
<path d="M18.6 3H5.4C4.07452 3 3 4.07452 3 5.4V20.6C3 21.9255 4.07452 23 5.4 23H18.6C19.9255 23 21 21.9255 21 20.6V5.4C21 4.07452 19.9255 3 18.6 3Z" stroke="black" stroke-width="1.5" stroke-miterlimit="10"/>
<path d="M7 14H17" stroke="black" stroke-width="1.5" stroke-miterlimit="10" stroke-linecap="round"/>
<path d="M7 11H17" stroke="black" stroke-width="1.5" stroke-miterlimit="10" stroke-linecap="round"/>
<path d="M7 17H13" stroke="black" stroke-width="1.5" stroke-miterlimit="10" stroke-linecap="round"/>
<path d="M16 3V5.2C16 5.64183 15.6418 6 15.2 6H8.8C8.35817 6 8 5.64183 8 5.2V3" stroke="black" stroke-width="1.5" stroke-miterlimit="10" stroke-linecap="round"/>
<path d="M14 3C14 1.89543 13.1046 1 12 1C10.8954 1 10 1.89543 10 3" stroke="black" stroke-width="1.5" stroke-miterlimit="10" stroke-linecap="round"/>
</svg>

<svg width="24" height="24" fill="none" xmlns="http://www.w3.org/2000/svg"><path d="M16 3h2.6A2.4 2.4 0 0 1 21 5.4v15.2a2.4 2.4 0 0 1-2.4 2.4H5.4A2.4 2.4 0 0 1 3 20.6V5.4A2.4 2.4 0 0 1 5.4 3H8" stroke="#000" stroke-width="1.5" stroke-miterlimit="10" stroke-linecap="round"/><path d="M18.6 3H5.4A2.4 2.4 0 0 0 3 5.4v15.2A2.4 2.4 0 0 0 5.4 23h13.2a2.4 2.4 0 0 0 2.4-2.4V5.4A2.4 2.4 0 0 0 18.6 3Z" stroke="#000" stroke-width="1.5" stroke-miterlimit="10"/><path d="M7 14h10M7 11h10M7 17h6M16 3v2.2a.8.8 0 0 1-.8.8H8.8a.8.8 0 0 1-.8-.8V3M14 3a2 2 0 1 0-4 0" stroke="#000" stroke-width="1.5" stroke-miterlimit="10" stroke-linecap="round"/></svg>
